;FLAVOR:Marlin
;TIME:21521
;Filament used: 18.4282m
;Layer height: 0.2
;MINX:54.407
;MINY:48.68
;MINZ:0.2
;MAXX:180.589
;MAXY:186.309
;MAXZ:80
;Generated with Cura_SteamEngine master
M140 S60
M105
M190 S60
M104 S240
M105
M109 S240
M82 ;absolute extrusion mode
; Ender 3 Custom Start G-code
G92 E0 ; Reset Extruder
G28 ; Home all axes
G1 Z2.0 F3000 ; Move Z Axis up little to prevent scratching of Heat Bed
G1 X0.1 Y20 Z0.3 F5000.0 ; Move to start position
G1 X0.1 Y200.0 Z0.3 F1500.0 E15 ; Draw the first line
G1 X0.4 Y200.0 Z0.3 F5000.0 ; Move to side a little
G1 X0.4 Y20 Z0.3 F1500.0 E30 ; Draw the second line
G92 E0 ; Reset Extruder
G1 Z2.0 F3000 ; Move Z Axis up little to prevent scratching of Heat Bed
G1 X5 Y20 Z0.3 F5000.0 ; Move over to prevent blob squish
G92 E0
G92 E0
G1 F2700 E-5
;LAYER_COUNT:400
;LAYER:0
M107
G0 F6000 X71.507 Y53.369 Z0.2
;TYPE:SKIRT
G1 F2700 E0
G1 F1200 X72.078 Y52.625 E0.03119
G1 X72.71 Y51.932 E0.06239
G1 X73.399 Y51.296 E0.09358
G1 X74.14 Y50.721 E0.12477
G1 X74.927 Y50.211 E0.15596
G1 X75.755 Y49.77 E0.18716
G1 X76.617 Y49.401 E0.21835
G1 X77.508 Y49.107 E0.24956
G1 X78.42 Y48.889 E0.28074
G1 X79.347 Y48.751 E0.31192
G1 X80.201 Y48.693 E0.34039
G1 X80.521 Y48.684 E0.35103
G1 X80.83 Y48.68 E0.36131
G1 X153.793 Y48.68 E2.78807
G1 X154.649 Y48.691 E2.81654
G1 X155.585 Y48.745 E2.84773
G1 X156.513 Y48.877 E2.8789
G1 X157.427 Y49.089 E2.91011
G1 X158.319 Y49.378 E2.9413
G1 X159.184 Y49.741 E2.9725
G1 X160.014 Y50.177 E3.00368
G1 X160.805 Y50.682 E3.03489
G1 X161.549 Y51.253 E3.06609
G1 X162.242 Y51.885 E3.09728
G1 X162.879 Y52.573 E3.12847
G1 X163.454 Y53.314 E3.15966
G1 X163.965 Y54.1 E3.19084
G1 X164.407 Y54.928 E3.22206
G1 X164.776 Y55.79 E3.25325
G1 X165.071 Y56.68 E3.28443
G1 X165.289 Y57.592 E3.31562
G1 X165.429 Y58.52 E3.34684
G1 X165.487 Y59.381 E3.37554
G1 X165.496 Y59.701 E3.38619
G1 X165.5 Y60.01 E3.39646
G1 X165.499 Y96.332 E4.60454
G1 X165.489 Y97.038 E4.62802
G1 X165.462 Y97.661 E4.64876
G1 X165.385 Y98.739 E4.68471
G1 X165.236 Y101.356 E4.77189
G1 X165.165 Y103.842 E4.85461
G1 X165.165 Y106.366 E4.93856
G1 X165.236 Y108.89 E5.02254
G1 X165.377 Y111.408 E5.10642
G1 X165.591 Y113.923 E5.19037
G1 X165.872 Y116.403 E5.27338
G1 X166.233 Y118.94 E5.35862
G1 X166.652 Y121.391 E5.44132
G1 X167.14 Y123.83 E5.52405
G1 X167.706 Y126.294 E5.60814
G1 X168.341 Y128.735 E5.69203
G1 X169.048 Y131.17 E5.77636
G1 X169.816 Y133.558 E5.85979
G1 X170.664 Y135.964 E5.94464
G1 X171.537 Y138.231 E6.02544
G1 X172.531 Y140.612 E6.11125
G1 X173.567 Y142.906 E6.19497
G1 X174.665 Y145.168 E6.2786
G1 X175.828 Y147.397 E6.36222
G1 X177.051 Y149.59 E6.44574
G1 X178.35 Y151.769 E6.53011
G1 X178.733 Y152.38 E6.5541
G1 X179.021 Y152.855 E6.57257
G1 X179.469 Y153.679 E6.60377
G1 X179.846 Y154.538 E6.63497
G1 X180.149 Y155.425 E6.66615
G1 X180.374 Y156.336 E6.69736
G1 X180.521 Y157.262 E6.72854
G1 X180.589 Y158.197 E6.75972
G1 X180.577 Y159.135 E6.79092
G1 X180.485 Y160.069 E6.82214
G1 X180.314 Y160.991 E6.85333
G1 X180.065 Y161.895 E6.88451
G1 X179.74 Y162.775 E6.91571
G1 X179.341 Y163.623 E6.94688
G1 X178.914 Y164.367 E6.97542
G1 X178.684 Y164.73 E6.98971
G1 X178.493 Y165.02 E7.00126
G1 X177.886 Y165.916 E7.03725
G1 X177.684 Y166.206 E7.04901
G1 X177.469 Y166.504 E7.06123
G1 X176.629 Y167.628 E7.1079
G1 X176.486 Y167.816 E7.11576
G1 X174.791 Y169.983 E7.20726
G1 X174.548 Y170.286 E7.22018
G1 X174.292 Y170.594 E7.2335
G1 X173.379 Y171.651 E7.27996
G1 X173.225 Y171.826 E7.28771
G1 X171.377 Y173.874 E7.37946
G1 X171.084 Y174.191 E7.39381
G1 X170.801 Y174.487 E7.40744
G1 X169.853 Y175.439 E7.45212
G1 X169.702 Y175.588 E7.45918
G1 X167.806 Y177.42 E7.54687
G1 X167.446 Y177.759 E7.56331
G1 X167.142 Y178.035 E7.57697
G1 X165.913 Y179.107 E7.63121
G1 X163.856 Y180.833 E7.72052
G1 X163.488 Y181.134 E7.73633
G1 X163.166 Y181.387 E7.74995
G1 X162.06 Y182.224 E7.79609
G1 X161.889 Y182.351 E7.80317
G1 X159.771 Y183.889 E7.89023
G1 X159.183 Y184.303 E7.91415
G1 X158.394 Y184.81 E7.94534
G1 X157.564 Y185.248 E7.97656
G1 X156.7 Y185.613 E8.00775
G1 X155.809 Y185.904 E8.03893
G1 X154.895 Y186.117 E8.07014
G1 X153.967 Y186.252 E8.10133
G1 X153.031 Y186.308 E8.13252
G1 X152.093 Y186.283 E8.16373
G1 X151.161 Y186.179 E8.19492
G1 X150.242 Y185.995 E8.22609
G1 X149.099 Y185.65 E8.2658
G1 X147.904 Y185.216 E8.30809
G1 X145.412 Y184.353 E8.3958
G1 X143.079 Y183.617 E8.47717
G1 X140.622 Y182.918 E8.56213
G1 X138.157 Y182.292 E8.64672
G1 X135.732 Y181.749 E8.72937
G1 X133.231 Y181.263 E8.81411
G1 X130.796 Y180.86 E8.8962
G1 X128.272 Y180.515 E8.98093
G1 X125.775 Y180.246 E9.06446
G1 X123.267 Y180.047 E9.14814
G1 X120.733 Y179.918 E9.23253
G1 X118.251 Y179.863 E9.3151
G1 X115.721 Y179.877 E9.39925
G1 X113.2 Y179.963 E9.48315
G1 X110.686 Y180.119 E9.56693
G1 X108.174 Y180.348 E9.65082
G1 X105.689 Y180.645 E9.73406
G1 X103.202 Y181.014 E9.81768
G1 X100.707 Y181.456 E9.90196
G1 X98.271 Y181.959 E9.98469
G1 X95.79 Y182.545 E10.06948
G1 X93.388 Y183.185 E10.15216
G1 X90.933 Y183.913 E10.23733
G1 X88.597 Y184.679 E10.31909
G1 X86.426 Y185.467 E10.39591
G1 X85.783 Y185.692 E10.41857
G1 X84.885 Y185.963 E10.44977
G1 X83.968 Y186.158 E10.48095
G1 X83.037 Y186.273 E10.51215
G1 X82.1 Y186.309 E10.54334
G1 X81.163 Y186.265 E10.57453
G1 X80.234 Y186.141 E10.60571
G1 X79.318 Y185.938 E10.63691
G1 X78.423 Y185.658 E10.6681
G1 X77.555 Y185.303 E10.69929
G1 X76.72 Y184.875 E10.7305
G1 X75.994 Y184.425 E10.75891
G1 X75.8 Y184.294 E10.7667
G1 X75.495 Y184.08 E10.77909
G1 X72.785 Y182.113 E10.89046
G1 X72.362 Y181.797 E10.90803
G1 X72.071 Y181.571 E10.92028
G1 X70.996 Y180.705 E10.96619
G1 X70.824 Y180.564 E10.97359
G1 X68.683 Y178.765 E11.0666
G1 X68.412 Y178.531 E11.07851
G1 X68.122 Y178.271 E11.09147
G1 X67.119 Y177.341 E11.13696
G1 X66.956 Y177.187 E11.14442
G1 X64.924 Y175.223 E11.23841
G1 X64.685 Y174.986 E11.24961
G1 X64.409 Y174.702 E11.26278
G1 X63.465 Y173.696 E11.30866
G1 X63.314 Y173.532 E11.31608
G1 X61.421 Y171.429 E11.41019
G1 X61.198 Y171.174 E11.42145
G1 X60.952 Y170.884 E11.4341
G1 X60.065 Y169.796 E11.48079
G1 X59.921 Y169.615 E11.48848
G1 X58.221 Y167.436 E11.5804
G1 X57.985 Y167.126 E11.59336
G1 X57.749 Y166.805 E11.60661
G1 X56.963 Y165.691 E11.65196
G1 X56.649 Y165.229 E11.67054
G1 X56.201 Y164.547 E11.69768
G1 X55.721 Y163.741 E11.72888
G1 X55.312 Y162.898 E11.76004
G1 X54.976 Y162.022 E11.79125
G1 X54.716 Y161.121 E11.82244
G1 X54.534 Y160.201 E11.85363
G1 X54.43 Y159.269 E11.88482
G1 X54.407 Y158.331 E11.91603
G1 X54.463 Y157.395 E11.94722
G1 X54.599 Y156.467 E11.97841
G1 X54.814 Y155.554 E12.00961
G1 X55.105 Y154.663 E12.04079
G1 X55.471 Y153.799 E12.07199
G1 X56.038 Y152.757 E12.11145
G1 X56.623 Y151.806 E12.14859
G1 X57.935 Y149.604 E12.23384
G1 X59.182 Y147.372 E12.31888
G1 X60.336 Y145.157 E12.40195
G1 X61.438 Y142.891 E12.48575
G1 X62.469 Y140.604 E12.56919
G1 X63.436 Y138.293 E12.65251
G1 X64.364 Y135.883 E12.73841
G1 X65.189 Y133.542 E12.82096
G1 X65.952 Y131.168 E12.9039
G1 X66.66 Y128.734 E12.98821
G1 X67.29 Y126.31 E13.07151
G1 X67.86 Y123.832 E13.15608
G1 X68.354 Y121.375 E13.23944
G1 X68.776 Y118.899 E13.32298
G1 X69.13 Y116.41 E13.4066
G1 X69.413 Y113.917 E13.49005
G1 X69.629 Y111.371 E13.57503
G1 X69.769 Y108.91 E13.65702
G1 X69.84 Y106.36 E13.74186
G1 X69.84 Y103.836 E13.82581
G1 X69.77 Y101.38 E13.90753
G1 X69.544 Y97.738 E14.0289
G1 X69.525 Y97.274 E14.04434
G1 X69.502 Y96.105 E14.08323
G1 X69.5 Y95.889 E14.09042
G1 X69.501 Y60.189 E15.2778
G1 X69.511 Y59.524 E15.29992
G1 X69.565 Y58.587 E15.33114
G1 X69.699 Y57.659 E15.36233
G1 X69.911 Y56.745 E15.39353
G1 X70.2 Y55.853 E15.42472
G1 X70.565 Y54.989 E15.45591
G1 X71.001 Y54.159 E15.4871
G1 X71.507 Y53.369 E15.5183
G0 F6000 X71.903 Y53.502
G1 F1200 X72.472 Y52.779 E15.5489
G1 X73.102 Y52.107 E15.57954
G1 X73.788 Y51.493 E15.61016
G1 X74.524 Y50.941 E15.64076
G1 X75.306 Y50.454 E15.6714
G1 X76.127 Y50.038 E15.70201
G1 X76.981 Y49.694 E15.73263
G1 X77.861 Y49.425 E15.76324
G1 X78.762 Y49.234 E15.79387
G1 X79.676 Y49.122 E15.8245
G1 X80.212 Y49.093 E15.84235
G1 X80.532 Y49.084 E15.853
G1 X80.83 Y49.08 E15.86291
G1 X153.793 Y49.08 E18.28967
G1 X154.643 Y49.091 E18.31795
G1 X155.562 Y49.144 E18.34856
G1 X156.473 Y49.277 E18.37918
G1 X157.369 Y49.488 E18.4098
G1 X158.243 Y49.776 E18.44041
G1 X159.09 Y50.139 E18.47106
G1 X159.901 Y50.574 E18.50167
G1 X160.671 Y51.078 E18.53227
G1 X161.395 Y51.647 E18.5629
G1 X162.067 Y52.277 E18.59354
G1 X162.682 Y52.962 E18.62416
G1 X163.235 Y53.698 E18.65478
G1 X163.722 Y54.479 E18.68539
G1 X164.139 Y55.3 E18.71602
G1 X164.484 Y56.154 E18.74665
G1 X164.753 Y57.034 E18.77726
G1 X164.945 Y57.935 E18.8079
G1 X165.058 Y58.848 E18.83849
G1 X165.087 Y59.392 E18.85661
G1 X165.096 Y59.712 E18.86726
G1 X165.1 Y60.01 E18.87717
G1 X165.099 Y96.326 E20.08505
G1 X165.089 Y97.032 E20.10853
G1 X165.063 Y97.633 E20.12854
G1 X164.99 Y98.655 E20.16262
G1 X164.838 Y101.324 E20.25153
G1 X164.765 Y103.865 E20.33608
G1 X164.765 Y106.377 E20.41963
G1 X164.836 Y108.925 E20.50441
G1 X164.977 Y111.429 E20.58783
G1 X165.192 Y113.966 E20.67251
G1 X165.472 Y116.433 E20.75509
G1 X165.836 Y118.992 E20.84106
G1 X166.259 Y121.465 E20.92451
G1 X166.753 Y123.933 E21.00822
G1 X167.313 Y126.371 E21.09142
G1 X167.967 Y128.885 E21.17782
G1 X168.656 Y131.256 E21.25994
G1 X169.444 Y133.708 E21.3456
G1 X170.278 Y136.074 E21.42904
G1 X171.178 Y138.412 E21.51237
G1 X172.16 Y140.765 E21.59717
G1 X173.193 Y143.052 E21.68064
G1 X174.315 Y145.362 E21.76605
G1 X175.465 Y147.567 E21.84876
G1 X176.702 Y149.783 E21.93317
G1 X178.026 Y152.006 E22.01923
G1 X178.5 Y152.765 E22.04899
G1 X178.678 Y153.061 E22.06048
G1 X179.118 Y153.87 E22.09111
G1 X179.486 Y154.714 E22.12174
G1 X179.779 Y155.587 E22.15236
G1 X179.995 Y156.482 E22.18299
G1 X180.133 Y157.392 E22.2136
G1 X180.192 Y158.311 E22.24423
G1 X180.17 Y159.231 E22.27484
G1 X180.069 Y160.146 E22.30545
G1 X179.889 Y161.049 E22.33608
G1 X179.631 Y161.933 E22.36671
G1 X179.297 Y162.791 E22.39733
G1 X178.89 Y163.617 E22.42796
G1 X178.575 Y164.155 E22.44869
G1 X178.349 Y164.511 E22.46272
G1 X178.162 Y164.796 E22.47406
G1 X177.558 Y165.688 E22.50989
G1 X177.356 Y165.978 E22.52164
G1 X177.149 Y166.264 E22.53338
G1 X176.309 Y167.388 E22.58005
G1 X176.171 Y167.569 E22.58762
G1 X174.479 Y169.733 E22.67899
G1 X174.236 Y170.036 E22.69191
G1 X173.989 Y170.333 E22.70475
G1 X173.076 Y171.39 E22.75121
G1 X172.927 Y171.558 E22.75868
G1 X171.083 Y173.603 E22.85026
G1 X170.79 Y173.92 E22.86462
G1 X170.517 Y174.205 E22.87775
G1 X169.569 Y175.157 E22.92243
G1 X169.424 Y175.3 E22.92921
G1 X167.43 Y177.225 E23.02139
G1 X167.172 Y177.468 E23.03318
G1 X166.879 Y177.734 E23.04634
G1 X165.817 Y178.662 E23.09325
G1 X165.655 Y178.8 E23.10032
G1 X163.492 Y180.614 E23.19422
G1 X163.235 Y180.824 E23.20526
G1 X162.925 Y181.068 E23.21838
G1 X161.819 Y181.905 E23.26451
G1 X161.654 Y182.027 E23.27133
G1 X159.54 Y183.562 E23.35823
G1 X158.952 Y183.976 E23.38214
G1 X158.177 Y184.473 E23.41277
G1 X157.362 Y184.901 E23.44338
G1 X156.513 Y185.256 E23.47399
G1 X155.636 Y185.536 E23.50461
G1 X154.738 Y185.74 E23.53524
G1 X153.826 Y185.864 E23.56585
G1 X152.906 Y185.909 E23.59649
G1 X151.986 Y185.874 E23.62711
G1 X151.073 Y185.759 E23.65772
G1 X150.173 Y185.565 E23.68834
G1 X149.235 Y185.274 E23.721
G1 X148.024 Y184.834 E23.76386
G1 X145.558 Y183.98 E23.85065
G1 X143.171 Y183.227 E23.9339
G1 X140.716 Y182.529 E24.01879
G1 X138.246 Y181.901 E24.10356
G1 X135.823 Y181.359 E24.18614
G1 X133.335 Y180.875 E24.27044
G1 X130.809 Y180.457 E24.3556
G1 X128.337 Y180.119 E24.43858
G1 X125.812 Y179.847 E24.52305
G1 X123.282 Y179.647 E24.60746
G1 X120.761 Y179.519 E24.69142
G1 X118.257 Y179.463 E24.77472
G1 X115.706 Y179.477 E24.85957
G1 X113.163 Y179.564 E24.9442
G1 X110.655 Y179.72 E25.02778
G1 X108.161 Y179.947 E25.11107
G1 X105.619 Y180.251 E25.19622
G1 X103.151 Y180.617 E25.27921
G1 X100.621 Y181.065 E25.36466
G1 X98.203 Y181.564 E25.44678
G1 X95.7 Y182.155 E25.53232
G1 X93.244 Y182.81 E25.61686
G1 X90.842 Y183.523 E25.7002
G1 X88.463 Y184.303 E25.78347
G1 X86.294 Y185.089 E25.8602
G1 X85.651 Y185.314 E25.88286
G1 X84.77 Y185.58 E25.91347
G1 X83.869 Y185.769 E25.94409
G1 X82.954 Y185.878 E25.97474
G1 X82.034 Y185.908 E26.00535
G1 X81.115 Y185.858 E26.03596
G1 X80.203 Y185.729 E26.0666
G1 X79.307 Y185.521 E26.09719
G1 X78.431 Y185.235 E26.12784
G1 X77.584 Y184.875 E26.15845
G1 X76.771 Y184.443 E26.18907
G1 X76.218 Y184.094 E26.21082
G1 X76.024 Y183.963 E26.21861
G1 X75.729 Y183.756 E26.23059
G1 X72.876 Y181.684 E26.34787
G1 X72.602 Y181.478 E26.35927
G1 X72.322 Y181.26 E26.37107
G1 X71.247 Y180.394 E26.41699
G1 X68.944 Y178.462 E26.51697
G1 X68.673 Y178.228 E26.52888
G1 X68.394 Y177.978 E26.54134
G1 X67.391 Y177.048 E26.58683
G1 X67.234 Y176.9 E26.59401
G1 X65.205 Y174.939 E26.68786
G1 X64.966 Y174.702 E26.69905
G1 X64.7 Y174.428 E26.71176
G1 X63.756 Y173.422 E26.75764
G1 X63.611 Y173.265 E26.76475
G1 X61.826 Y171.284 E26.85344
G1 X61.499 Y170.911 E26.86994
G1 X61.262 Y170.631 E26.88214
G1 X60.375 Y169.543 E26.92883
G1 X60.236 Y169.369 E26.93623
G1 X58.539 Y167.194 E27.02799
G1 X58.303 Y166.884 E27.04095
G1 X58.076 Y166.574 E27.05373
G1 X57.29 Y165.46 E27.09907
G1 X56.98 Y165.005 E27.11738
G1 X56.535 Y164.328 E27.14433
G1 X56.065 Y163.537 E27.17493
G1 X55.665 Y162.707 E27.20558
G1 X55.339 Y161.847 E27.23617
G1 X55.089 Y160.961 E27.26679
G1 X54.916 Y160.056 E27.29743
G1 X54.823 Y159.14 E27.32805
G1 X54.809 Y158.22 E27.35866
G1 X54.876 Y157.302 E27.38927
G1 X55.022 Y156.393 E27.41989
G1 X55.246 Y155.5 E27.45051
G1 X55.546 Y154.629 E27.48115
G1 X55.922 Y153.789 E27.51176
G1 X56.378 Y152.967 E27.54303
G1 X56.964 Y152.015 E27.58021
G1 X58.3 Y149.771 E27.66707
G1 X59.513 Y147.599 E27.74982
G1 X60.707 Y145.31 E27.83568
G1 X61.784 Y143.094 E27.91763
G1 X62.845 Y140.744 E28.00339
G1 X63.82 Y138.413 E28.08743
G1 X64.727 Y136.054 E28.17149
G1 X65.572 Y133.66 E28.25593
G1 X66.334 Y131.287 E28.33882
G1 X67.042 Y128.85 E28.42323
G1 X67.683 Y126.387 E28.50788
G1 X68.249 Y123.929 E28.59177
G1 X68.752 Y121.422 E28.67682
G1 X69.168 Y118.982 E28.75914
G1 X69.53 Y116.445 E28.84438
G1 X69.812 Y113.96 E28.92756
G1 X70.026 Y111.429 E29.01204
G1 X70.169 Y108.908 E29.09602
G1 X70.24 Y106.371 E29.18044
G1 X70.24 Y103.859 E29.26399
G1 X70.168 Y101.346 E29.3476
G1 X69.943 Y97.714 E29.46864
G1 X69.925 Y97.267 E29.48352
G1 X69.902 Y96.098 E29.5224
G1 X69.9 Y95.889 E29.52936
G1 X69.901 Y60.195 E30.71654
G1 X69.911 Y59.53 E30.73866
G1 X69.965 Y58.611 E30.76928
G1 X70.098 Y57.7 E30.7999
G1 X70.31 Y56.804 E30.83053
G1 X70.599 Y55.929 E30.86118
G1 X70.963 Y55.084 E30.89178
G1 X71.398 Y54.273 E30.92239
G1 X71.903 Y53.502 E30.95304
G0 F6000 X72.298 Y53.638
G1 F1200 X72.866 Y52.936 E30.98308
G1 X73.493 Y52.286 E31.01311
G1 X74.175 Y51.694 E31.04315
G1 X74.907 Y51.165 E31.07319
G1 X75.683 Y50.703 E31.10323
G1 X76.497 Y50.312 E31.13326
G1 X77.342 Y49.993 E31.1633
G1 X78.212 Y49.751 E31.19334
G1 X79.1 Y49.587 E31.22337
G1 X80.223 Y49.493 E31.26086
G1 X80.543 Y49.484 E31.2715
G1 X80.83 Y49.48 E31.28105
G1 X153.793 Y49.48 E33.70781
G1 X154.637 Y49.491 E33.73588
G1 X155.539 Y49.544 E33.76594
G1 X156.432 Y49.676 E33.79596
G1 X157.31 Y49.887 E33.82599
G1 X158.166 Y50.175 E33.85603
G1 X158.993 Y50.537 E33.88606
G1 X159.785 Y50.972 E33.91611
G1 X160.536 Y51.474 E33.94616
G1 X161.239 Y52.041 E33.9762
G1 X161.889 Y52.668 E34.00623
G1 X162.481 Y53.35 E34.03627
G1 X163.011 Y54.081 E34.0663
G1 X163.473 Y54.857 E34.09634
G1 X163.866 Y55.67 E34.12637
G1 X164.184 Y56.515 E34.1564
G1 X164.427 Y57.385 E34.18645
G1 X164.592 Y58.273 E34.21649
G1 X164.687 Y59.403 E34.2542
G1 X164.696 Y59.723 E34.26485
G1 X164.7 Y60.01 E34.2744
G1 X164.699 Y96.32 E35.48207
G1 X164.689 Y97.026 E35.50556
G1 X164.664 Y97.604 E35.5248
G1 X164.586 Y98.704 E35.56148
G1 X164.438 Y101.289 E35.6476
G1 X164.365 Y103.854 E35.73294
G1 X164.365 Y106.388 E35.81722
G1 X164.436 Y108.922 E35.90154
G1 X164.578 Y111.452 E35.98582
G1 X164.795 Y114.009 E36.07117
G1 X165.082 Y116.538 E36.15583
G1 X165.434 Y119.011 E36.23891
G1 X165.866 Y121.54 E36.32424
G1 X166.356 Y123.989 E36.40731
G1 X166.94 Y126.53 E36.49403
G1 X167.57 Y128.949 E36.57717
