;FLAVOR:Marlin
;TIME:19582
;Filament used: 15.5855m
;Layer height: 0.2
;MINX:50.307
;MINY:45.901
;MINZ:0.2
;MAXX:184.694
;MAXY:189.082
;MAXZ:80
;Generated with Cura_SteamEngine master
M140 S55
M105
M190 S55
M104 S230
M105
M109 S230
M82 ;absolute extrusion mode
; Ender 3 Custom Start G-code
G92 E0 ; Reset Extruder
G28 ; Home all axes
G1 Z2.0 F3000 ; Move Z Axis up little to prevent scratching of Heat Bed
G1 X0.1 Y20 Z0.3 F5000.0 ; Move to start position
G1 X0.1 Y200.0 Z0.3 F1500.0 E15 ; Draw the first line
G1 X0.4 Y200.0 Z0.3 F5000.0 ; Move to side a little
G1 X0.4 Y20 Z0.3 F1500.0 E30 ; Draw the second line
G92 E0 ; Reset Extruder
G1 Z2.0 F3000 ; Move Z Axis up little to prevent scratching of Heat Bed
G1 X5 Y20 Z0.3 F5000.0 ; Move over to prevent blob squish
G92 E0
G92 E0
G1 F2700 E-5
;LAYER_COUNT:400
;LAYER:0
M107
G0 F6000 X70.507 Y50.59 Z0.2
;TYPE:SKIRT
G1 F2700 E0
G1 F1200 X71.078 Y49.846 E0.03119
G1 X71.71 Y49.153 E0.06239
G1 X72.399 Y48.517 E0.09358
G1 X73.14 Y47.942 E0.12477
G1 X73.927 Y47.432 E0.15596
G1 X74.755 Y46.991 E0.18716
G1 X75.617 Y46.622 E0.21835
G1 X76.508 Y46.328 E0.24956
G1 X77.42 Y46.11 E0.28074
G1 X78.347 Y45.972 E0.31192
G1 X79.201 Y45.914 E0.34039
G1 X79.521 Y45.905 E0.35103
G1 X79.83 Y45.901 E0.36131
G1 X154.793 Y45.901 E2.85459
G1 X155.649 Y45.912 E2.88306
G1 X156.585 Y45.966 E2.91425
G1 X157.513 Y46.098 E2.94542
G1 X158.427 Y46.31 E2.97663
G1 X159.319 Y46.599 E3.00782
G1 X160.184 Y46.962 E3.03902
G1 X161.014 Y47.398 E3.0702
G1 X161.805 Y47.903 E3.10141
G1 X162.549 Y48.474 E3.13261
G1 X163.242 Y49.106 E3.1638
G1 X163.879 Y49.794 E3.19499
G1 X164.454 Y50.535 E3.22618
G1 X164.965 Y51.321 E3.25736
G1 X165.407 Y52.149 E3.28858
G1 X165.776 Y53.011 E3.31977
G1 X166.071 Y53.901 E3.35095
G1 X166.289 Y54.813 E3.38214
G1 X166.429 Y55.741 E3.41336
G1 X166.487 Y56.602 E3.44206
G1 X166.496 Y56.922 E3.45271
G1 X166.5 Y57.231 E3.46298
G1 X166.499 Y96.799 E4.77902
G1 X166.477 Y98.385 E4.83178
G1 X166.448 Y99.412 E4.86595
G1 X166.448 Y101.93 E4.9497
G1 X166.519 Y104.479 E5.03451
G1 X166.659 Y106.942 E5.11656
G1 X166.874 Y109.479 E5.20125
G1 X167.157 Y111.974 E5.28476
G1 X167.515 Y114.492 E5.36935
G1 X167.937 Y116.956 E5.4525
G1 X168.429 Y119.413 E5.53584
G1 X168.987 Y121.844 E5.6188
G1 X169.626 Y124.297 E5.70311
G1 X170.328 Y126.718 E5.78695
G1 X171.11 Y129.149 E5.87189
G1 X171.935 Y131.487 E5.95435
G1 X172.847 Y133.856 E6.03878
G1 X173.811 Y136.162 E6.12191
G1 X174.843 Y138.449 E6.20536
G1 X175.95 Y140.727 E6.2896
G1 X177.113 Y142.958 E6.37328
G1 X178.349 Y145.172 E6.45761
G1 X179.615 Y147.298 E6.53991
G1 X180.985 Y149.456 E6.62493
G1 X182.802 Y152.144 E6.73284
G1 X183.294 Y152.943 E6.76405
G1 X183.717 Y153.78 E6.79524
G1 X184.066 Y154.65 E6.82642
G1 X184.341 Y155.547 E6.85763
G1 X184.537 Y156.464 E6.88881
G1 X184.656 Y157.394 E6.92
G1 X184.694 Y158.331 E6.95119
G1 X184.652 Y159.268 E6.98239
G1 X184.531 Y160.198 E7.01358
G1 X184.331 Y161.115 E7.04479
G1 X184.054 Y162.011 E7.07599
G1 X183.701 Y162.88 E7.10718
G1 X183.037 Y164.119 E7.15394
G1 X182.909 Y164.325 E7.162
G1 X182.69 Y164.663 E7.1754
G1 X181.118 Y166.995 E7.26894
G1 X180.904 Y167.302 E7.28139
G1 X180.689 Y167.6 E7.29361
G1 X179.885 Y168.675 E7.33826
G1 X179.744 Y168.86 E7.34599
G1 X177.848 Y171.285 E7.44838
G1 X177.614 Y171.577 E7.46082
G1 X177.352 Y171.891 E7.47442
G1 X176.435 Y172.952 E7.52107
G1 X176.287 Y173.12 E7.52851
G1 X174.277 Y175.351 E7.62839
G1 X174 Y175.651 E7.64197
G1 X173.72 Y175.944 E7.65545
G1 X172.733 Y176.937 E7.70202
G1 X172.567 Y177.1 E7.70975
G1 X170.372 Y179.216 E7.81116
G1 X170.103 Y179.47 E7.82346
G1 X169.79 Y179.754 E7.83752
G1 X168.758 Y180.656 E7.88311
G1 X168.59 Y180.8 E7.89047
G1 X166.216 Y182.792 E7.99354
G1 X165.985 Y182.981 E8.00347
G1 X165.663 Y183.234 E8.01709
G1 X164.548 Y184.079 E8.06362
G1 X164.367 Y184.213 E8.07111
G1 X161.983 Y185.944 E8.1691
G1 X161.564 Y186.24 E8.18616
G1 X161.254 Y186.451 E8.19864
G1 X160.274 Y187.092 E8.23758
G1 X159.958 Y187.291 E8.25
G1 X159.625 Y187.493 E8.26296
G1 X158.803 Y187.945 E8.29416
G1 X157.946 Y188.325 E8.32534
G1 X157.059 Y188.631 E8.35655
G1 X156.15 Y188.86 E8.38773
G1 X155.224 Y189.01 E8.41893
G1 X154.289 Y189.082 E8.45012
G1 X153.351 Y189.073 E8.48132
G1 X152.417 Y188.985 E8.51252
G1 X151.495 Y188.817 E8.54369
G1 X150.589 Y188.572 E8.57491
G1 X150.038 Y188.38 E8.59431
G1 X148.984 Y187.983 E8.63177
G1 X146.561 Y187.106 E8.71748
G1 X144.15 Y186.312 E8.80191
G1 X141.748 Y185.595 E8.88528
G1 X139.304 Y184.94 E8.96944
G1 X136.871 Y184.362 E9.05261
G1 X134.386 Y183.844 E9.13704
G1 X131.938 Y183.406 E9.21975
G1 X129.415 Y183.028 E9.3046
G1 X126.929 Y182.727 E9.38789
G1 X124.456 Y182.499 E9.47049
G1 X121.907 Y182.336 E9.55545
G1 X119.41 Y182.247 E9.63855
G1 X116.891 Y182.228 E9.72233
G1 X114.363 Y182.282 E9.80644
G1 X111.841 Y182.406 E9.89042
G1 X109.333 Y182.601 E9.97409
G1 X106.842 Y182.866 E10.05741
G1 X104.344 Y183.202 E10.14124
G1 X101.876 Y183.607 E10.22442
G1 X99.377 Y184.09 E10.30908
G1 X96.977 Y184.624 E10.39085
G1 X94.479 Y185.253 E10.47653
G1 X92.084 Y185.931 E10.55932
G1 X89.67 Y186.688 E10.64346
G1 X87.266 Y187.517 E10.72804
G1 X85.542 Y188.157 E10.78921
G1 X85.011 Y188.36 E10.80811
G1 X84.121 Y188.657 E10.83932
G1 X83.21 Y188.878 E10.8705
G1 X82.283 Y189.02 E10.90169
G1 X81.347 Y189.082 E10.93289
G1 X80.409 Y189.064 E10.96409
G1 X79.476 Y188.967 E10.99529
G1 X78.555 Y188.79 E11.02649
G1 X77.652 Y188.536 E11.05769
G1 X76.775 Y188.206 E11.08885
G1 X75.928 Y187.802 E11.12006
G1 X75.398 Y187.501 E11.14034
G1 X74.782 Y187.129 E11.16427
G1 X74.537 Y186.977 E11.17386
G1 X74.348 Y186.856 E11.18132
G1 X73.997 Y186.622 E11.19535
G1 X72.919 Y185.872 E11.23903
G1 X72.735 Y185.741 E11.24655
G1 X70.339 Y184 E11.34505
G1 X69.916 Y183.683 E11.36263
G1 X69.643 Y183.47 E11.37415
G1 X68.544 Y182.586 E11.42106
G1 X68.367 Y182.441 E11.42867
G1 X66.023 Y180.472 E11.53049
G1 X65.684 Y180.178 E11.54541
G1 X65.418 Y179.94 E11.55729
G1 X64.433 Y179.028 E11.60193
G1 X64.266 Y178.87 E11.60958
G1 X62.158 Y176.835 E11.70703
G1 X62.003 Y176.683 E11.71425
G1 X61.769 Y176.448 E11.72528
G1 X61.55 Y176.221 E11.73577
G1 X60.574 Y175.183 E11.78316
G1 X60.413 Y175.008 E11.79107
G1 X58.349 Y172.714 E11.89371
G1 X58.106 Y172.435 E11.90601
G1 X57.88 Y172.167 E11.91767
G1 X57.017 Y171.11 E11.96306
G1 X56.871 Y170.926 E11.97087
G1 X54.964 Y168.484 E12.07392
G1 X54.734 Y168.18 E12.0866
G1 X54.517 Y167.883 E12.09884
G1 X53.727 Y166.763 E12.14442
G1 X53.596 Y166.573 E12.1521
G1 X52.455 Y164.879 E12.22003
G1 X52.094 Y164.326 E12.242
G1 X51.615 Y163.52 E12.27318
G1 X51.207 Y162.675 E12.30439
G1 X50.872 Y161.799 E12.33558
G1 X50.613 Y160.898 E12.36676
G1 X50.432 Y159.978 E12.39795
G1 X50.329 Y159.045 E12.42917
G1 X50.307 Y158.108 E12.46034
G1 X50.364 Y157.172 E12.49153
G1 X50.501 Y156.244 E12.52273
G1 X50.717 Y155.331 E12.55394
G1 X51.009 Y154.44 E12.58512
G1 X51.377 Y153.577 E12.61633
G1 X51.816 Y152.748 E12.64753
G1 X52.279 Y152.025 E12.67608
G1 X52.561 Y151.62 E12.6925
G1 X54.005 Y149.484 E12.77825
G1 X55.334 Y147.392 E12.86068
G1 X56.633 Y145.214 E12.94503
G1 X57.872 Y142.995 E13.02956
G1 X59.026 Y140.787 E13.11242
G1 X60.134 Y138.509 E13.19668
G1 X61.178 Y136.199 E13.28099
G1 X62.133 Y133.918 E13.36324
G1 X63.058 Y131.524 E13.4486
G1 X63.884 Y129.181 E13.53123
G1 X64.654 Y126.786 E13.6149
G1 X65.359 Y124.368 E13.69867
G1 X65.996 Y121.92 E13.78281
G1 X66.559 Y119.485 E13.86593
G1 X67.067 Y116.96 E13.9516
G1 X67.479 Y114.55 E14.03292
G1 X67.837 Y112.035 E14.11741
G1 X68.123 Y109.531 E14.20123
G1 X68.339 Y107.015 E14.28522
G1 X68.48 Y104.512 E14.36861
G1 X68.552 Y102.013 E14.45176
G1 X68.554 Y99.483 E14.53591
G1 X68.517 Y98.094 E14.58212
G1 X68.5 Y96.721 E14.62779
G1 X68.501 Y57.41 E15.93528
G1 X68.511 Y56.745 E15.9574
G1 X68.565 Y55.808 E15.98862
G1 X68.699 Y54.88 E16.0198
G1 X68.911 Y53.966 E16.05101
G1 X69.2 Y53.074 E16.08219
G1 X69.565 Y52.21 E16.11339
G1 X70.001 Y51.38 E16.14457
G1 X70.507 Y50.59 E16.17578
G0 F6000 X70.903 Y50.723
G1 F1200 X71.472 Y50 E16.20638
G1 X72.102 Y49.328 E16.23701
G1 X72.788 Y48.714 E16.26764
G1 X73.524 Y48.162 E16.29823
G1 X74.306 Y47.675 E16.32888
G1 X75.127 Y47.259 E16.35949
G1 X75.981 Y46.915 E16.39011
G1 X76.861 Y46.646 E16.42072
G1 X77.762 Y46.455 E16.45135
G1 X78.676 Y46.343 E16.48198
G1 X79.212 Y46.314 E16.49983
G1 X79.532 Y46.305 E16.51048
G1 X79.83 Y46.301 E16.52039
G1 X154.793 Y46.301 E19.01367
G1 X155.643 Y46.312 E19.04194
G1 X156.562 Y46.365 E19.07256
G1 X157.473 Y46.498 E19.10318
G1 X158.369 Y46.709 E19.1338
G1 X159.243 Y46.997 E19.1644
G1 X160.09 Y47.36 E19.19505
G1 X160.901 Y47.795 E19.22566
G1 X161.671 Y48.299 E19.25627
G1 X162.395 Y48.868 E19.2869
G1 X163.067 Y49.498 E19.31753
G1 X163.682 Y50.183 E19.34815
G1 X164.235 Y50.919 E19.37877
G1 X164.722 Y51.7 E19.40939
G1 X165.139 Y52.521 E19.44001
G1 X165.484 Y53.375 E19.47065
G1 X165.753 Y54.255 E19.50125
G1 X165.945 Y55.156 E19.53189
G1 X166.058 Y56.069 E19.56249
G1 X166.087 Y56.613 E19.58061
G1 X166.096 Y56.933 E19.59126
G1 X166.1 Y57.231 E19.60117
G1 X166.099 Y96.793 E20.91701
G1 X166.074 Y98.54 E20.97512
G1 X166.048 Y99.435 E21.0049
G1 X166.048 Y101.941 E21.08825
G1 X166.119 Y104.477 E21.17263
G1 X166.262 Y107 E21.25668
G1 X166.476 Y109.522 E21.34086
G1 X166.757 Y112.004 E21.42394
G1 X167.119 Y114.55 E21.50947
G1 X167.544 Y117.031 E21.59319
G1 X168.041 Y119.51 E21.67729
G1 X168.596 Y121.929 E21.75983
G1 X169.247 Y124.428 E21.84572
G1 X169.942 Y126.825 E21.92873
G1 X170.724 Y129.257 E22.0137
G1 X171.561 Y131.627 E22.0973
G1 X172.476 Y134.005 E22.18204
G1 X173.449 Y136.332 E22.26593
G1 X174.482 Y138.623 E22.34952
G1 X175.593 Y140.908 E22.43403
G1 X176.766 Y143.159 E22.51845
G1 X177.983 Y145.339 E22.60149
G1 X179.293 Y147.537 E22.6866
G1 X180.648 Y149.673 E22.77073
G1 X181.685 Y151.21 E22.8324
G1 X182.47 Y152.369 E22.87896
G1 X182.953 Y153.153 E22.90958
G1 X183.366 Y153.976 E22.94021
G1 X183.706 Y154.831 E22.97081
G1 X183.97 Y155.713 E23.00143
G1 X184.157 Y156.615 E23.03207
G1 X184.265 Y157.529 E23.06268
G1 X184.293 Y158.449 E23.0933
G1 X184.241 Y159.368 E23.12391
G1 X184.11 Y160.279 E23.15452
G1 X183.9 Y161.176 E23.18516
G1 X183.613 Y162.051 E23.21579
G1 X183.251 Y162.897 E23.2464
G1 X182.697 Y163.907 E23.28471
G1 X182.569 Y164.113 E23.29278
G1 X182.358 Y164.44 E23.30572
G1 X180.79 Y166.767 E23.39905
G1 X180.576 Y167.074 E23.4115
G1 X180.369 Y167.361 E23.42327
G1 X179.565 Y168.436 E23.46792
G1 X179.429 Y168.613 E23.47534
G1 X177.536 Y171.035 E23.57758
G1 X177.302 Y171.327 E23.59003
G1 X177.05 Y171.629 E23.60311
G1 X176.133 Y172.69 E23.64975
G1 X175.99 Y172.852 E23.65694
G1 X173.983 Y175.08 E23.75668
G1 X173.706 Y175.38 E23.77026
G1 X173.436 Y175.662 E23.78324
G1 X172.449 Y176.655 E23.82981
G1 X172.29 Y176.812 E23.83724
G1 X170.179 Y178.848 E23.93479
G1 X169.828 Y179.179 E23.95083
G1 X169.527 Y179.453 E23.96437
G1 X168.495 Y180.355 E24.00996
G1 X168.333 Y180.494 E24.01706
G1 X165.962 Y182.482 E24.11997
G1 X165.731 Y182.671 E24.1299
G1 X165.421 Y182.915 E24.14302
G1 X164.306 Y183.76 E24.18955
G1 X164.132 Y183.889 E24.19675
G1 X161.621 Y185.711 E24.29994
G1 X161.334 Y185.913 E24.31161
G1 X161.035 Y186.116 E24.32363
G1 X160.055 Y186.757 E24.36258
G1 X159.751 Y186.949 E24.37454
G1 X159.418 Y187.151 E24.3875
G1 X158.61 Y187.594 E24.41814
G1 X157.768 Y187.965 E24.44875
G1 X156.896 Y188.262 E24.47939
G1 X156.002 Y188.481 E24.51
G1 X155.093 Y188.623 E24.5406
G1 X154.174 Y188.685 E24.57123
G1 X153.254 Y188.667 E24.60184
G1 X152.338 Y188.569 E24.63248
G1 X151.435 Y188.393 E24.66308
G1 X150.18 Y188.006 E24.70676
G1 X149.137 Y187.613 E24.74383
G1 X146.685 Y186.726 E24.83056
G1 X144.275 Y185.932 E24.91495
G1 X141.861 Y185.212 E24.99874
G1 X139.403 Y184.553 E25.08338
G1 X136.932 Y183.965 E25.16786
G1 X134.467 Y183.452 E25.2516
G1 X132.002 Y183.011 E25.33489
G1 X129.485 Y182.634 E25.41954
G1 X126.981 Y182.331 E25.50343
G1 X124.482 Y182.1 E25.5869
G1 X121.91 Y181.936 E25.67262
G1 X119.427 Y181.847 E25.75526
G1 X116.885 Y181.828 E25.83981
G1 X114.333 Y181.882 E25.92471
G1 X111.826 Y182.006 E26.00819
G1 X109.331 Y182.199 E26.09142
G1 X106.778 Y182.471 E26.17682
G1 X104.297 Y182.805 E26.26008
G1 X101.773 Y183.219 E26.34515
G1 X99.32 Y183.693 E26.42825
G1 X96.864 Y184.239 E26.51193
G1 X94.378 Y184.866 E26.5972
G1 X91.96 Y185.55 E26.68078
G1 X89.556 Y186.303 E26.76457
G1 X87.136 Y187.138 E26.84972
G1 X85.454 Y187.763 E26.9094
G1 X84.868 Y187.987 E26.93026
G1 X83.995 Y188.278 E26.96087
G1 X83.099 Y188.492 E26.99151
G1 X82.189 Y188.627 E27.02211
G1 X81.27 Y188.683 E27.05273
G1 X80.349 Y188.66 E27.08337
G1 X79.434 Y188.556 E27.114
G1 X78.532 Y188.373 E27.14461
G1 X77.649 Y188.113 E27.17523
G1 X76.792 Y187.777 E27.20584
G1 X75.604 Y187.159 E27.25038
G1 X74.988 Y186.787 E27.27432
G1 X74.564 Y186.519 E27.291
G1 X74.225 Y186.293 E27.30455
G1 X73.147 Y185.543 E27.34823
G1 X72.97 Y185.417 E27.35546
G1 X70.425 Y183.566 E27.46012
G1 X70.157 Y183.364 E27.47129
G1 X69.893 Y183.159 E27.4824
G1 X68.794 Y182.275 E27.52931
G1 X68.624 Y182.135 E27.53664
G1 X66.416 Y180.282 E27.63251
G1 X65.946 Y179.876 E27.65317
G1 X65.689 Y179.646 E27.66464
G1 X64.704 Y178.734 E27.70929
G1 X64.544 Y178.582 E27.71663
G1 X62.436 Y176.547 E27.81408
G1 X62.053 Y176.165 E27.83207
G1 X61.842 Y175.947 E27.84216
G1 X60.866 Y174.909 E27.88955
G1 X60.711 Y174.741 E27.89715
G1 X58.651 Y172.451 E27.9996
G1 X58.408 Y172.172 E28.01191
G1 X58.19 Y171.914 E28.02314
G1 X57.327 Y170.857 E28.06853
G1 X57.186 Y170.68 E28.07605
G1 X55.283 Y168.243 E28.17889
G1 X55.053 Y167.939 E28.19157
G1 X54.844 Y167.653 E28.20335
G1 X54.054 Y166.533 E28.24894
G1 X53.928 Y166.35 E28.25633
G1 X52.79 Y164.66 E28.32409
G1 X52.429 Y164.107 E28.34606
G1 X51.96 Y163.315 E28.37667
G1 X51.561 Y162.486 E28.40727
G1 X51.235 Y161.624 E28.43793
G1 X50.986 Y160.738 E28.46854
G1 X50.815 Y159.833 E28.49917
G1 X50.722 Y158.917 E28.52979
G1 X50.71 Y157.997 E28.56039
G1 X50.777 Y157.079 E28.59101
G1 X50.924 Y156.17 E28.62163
G1 X51.149 Y155.277 E28.65226
G1 X51.451 Y154.407 E28.68289
G1 X51.827 Y153.567 E28.7135
G1 X52.274 Y152.762 E28.74413
G1 X52.607 Y152.254 E28.76433
G1 X52.877 Y151.867 E28.78003
G1 X54.33 Y149.717 E28.86633
G1 X55.697 Y147.564 E28.95116
G1 X56.992 Y145.393 E29.03524
G1 X58.196 Y143.239 E29.11731
G1 X59.396 Y140.94 E29.20357
G1 X60.5 Y138.67 E29.28752
G1 X61.521 Y136.413 E29.36991
G1 X62.515 Y134.037 E29.45558
G1 X63.432 Y131.664 E29.54019
G1 X64.266 Y129.299 E29.6236
G1 X65.036 Y126.905 E29.70724
G1 X65.744 Y124.475 E29.79142
G1 X66.387 Y122.006 E29.87628
G1 X66.947 Y119.582 E29.95903
G1 X67.46 Y117.036 E30.04541
G1 X67.876 Y114.603 E30.12751
G1 X68.232 Y112.105 E30.21143
G1 X68.525 Y109.539 E30.29733
G1 X68.736 Y107.072 E30.37968
G1 X68.879 Y104.545 E30.46386
G1 X68.952 Y101.989 E30.54891
G1 X68.954 Y99.472 E30.63263
G1 X68.917 Y98.089 E30.67864
G1 X68.9 Y96.721 E30.72415
G1 X68.901 Y57.416 E32.03144
G1 X68.911 Y56.751 E32.05356
G1 X68.965 Y55.832 E32.08418
G1 X69.098 Y54.921 E32.1148
G1 X69.31 Y54.025 E32.14542
G1 X69.599 Y53.15 E32.17607
G1 X69.963 Y52.305 E32.20667
G1 X70.398 Y51.494 E32.23728
G1 X70.903 Y50.723 E32.26794
G0 F6000 X71.298 Y50.859
G1 F1200 X71.866 Y50.157 E32.29797
G1 X72.493 Y49.507 E32.32801
G1 X73.175 Y48.915 E32.35804
G1 X73.907 Y48.386 E32.38808
G1 X74.683 Y47.924 E32.41812
G1 X75.497 Y47.533 E32.44816
G1 X76.342 Y47.214 E32.4782
G1 X77.212 Y46.972 E32.50823
G1 X78.1 Y46.808 E32.53827
G1 X79.223 Y46.714 E32.57575
G1 X79.543 Y46.705 E32.5864
G1 X79.83 Y46.701 E32.59594
G1 X154.793 Y46.701 E35.08922
G1 X155.637 Y46.712 E35.1173
G1 X156.539 Y46.765 E35.14735
G1 X157.432 Y46.897 E35.17737
G1 X158.31 Y47.108 E35.20741
G1 X159.166 Y47.396 E35.23744
G1 X159.993 Y47.758 E35.26747
G1 X160.785 Y48.193 E35.29752
G1 X161.536 Y48.695 E35.32757
G1 X162.239 Y49.262 E35.35761
G1 X162.889 Y49.889 E35.38765
G1 X163.481 Y50.571 E35.41768
G1 X164.011 Y51.302 E35.44771
G1 X164.473 Y52.078 E35.47775
G1 X164.866 Y52.891 E35.50779
G1 X165.184 Y53.736 E35.53782
G1 X165.427 Y54.606 E35.56786
G1 X165.592 Y55.494 E35.5979
G1 X165.687 Y56.624 E35.63562
G1 X165.696 Y56.944 E35.64626
G1 X165.7 Y57.231 E35.65581
G1 X165.699 Y96.787 E36.97145
G1 X165.674 Y98.528 E37.02936
